src/topics/icons/looker.svg

<svg height="200" preserveAspectRatio="xMidYMid" viewBox="0 0 512 200" width="512" xmlns="http://www.w3.org/2000/svg"><path d="m17.1007808 157.508772v-113.0643431h-17.1007808v113.6739361c0 26.78557 16.888282 41.314902 41.5274011 38.430071v-16.330204c-13.0225225.609591-24.4266203-4.112602-24.4266203-22.70946zm75.7654522 24.943916c-19.3416764 0-35.2490299-17.165175-35.2490299-38.219719 0-21.483836 15.9073535-39.0783 35.2490299-39.0783 19.519832 0 35.397135 17.594464 35.397135 39.0783 0 21.054544-15.877303 38.219719-35.397135 38.219719zm0-93.8471617c-29.7283561 0-52.7511971 24.9460617-52.7511971 55.6274427 0 30.256383 23.022841 54.981359 52.7511971 54.981359 29.912951 0 52.712561-24.727123 52.712561-54.981359 0-30.681381-22.79961-55.6274427-52.712561-55.6274427zm261.802714 2.665893h-25.441892l-47.840115 47.2348157v-94.0618061h-17.315426v152.1104461h17.315426v-33.926815l20.140156-19.652912 35.822132 53.579727h20.968687l-44.167537-65.838113zm10.178474 41.7098497c4.475352-17.987265 19.73877-28.620787 34.205854-28.620787 15.261272 0 29.513711 11.436295 33.800175 28.620787zm34.203708-44.3757427c-29.11447 0-52.719 24.9460617-52.719 55.4149437 0 30.863829 23.602382 54.985653 53.72354 54.985653 24.246318 0 42.147725-12.664065 49.471419-35.156733h-18.330699c-5.698829 12.254093-16.270103 19.433974-31.14072 19.433974-17.281083 0-33.986917-12.90876-36.225667-34.759639h88.148333c.216792-37.419092-25.864743-59.9181987-52.927206-59.9181987zm78.57945 14.5293317v-11.8591458h-16.699394v105.2748708h17.313279v-60.927032c0-21.054545 15.475918-30.649184 33.587677-29.636059v-17.1651741c-12.011544-1.4467084-26.261836 3.0629866-34.201562 14.3125401z" fill="#3e4345"/><path d="m203.202436 88.6055263c-7.75513 0-15.023015 1.7128684-21.548229 4.7801479l11.06496 13.5784528c3.309828-1.16123 6.836448-1.809458 10.483269-1.809458 19.519832 0 35.427185 17.594464 35.427185 39.0783 0 21.054544-15.907353 38.219719-35.427185 38.219719-19.341676 0-35.218979-17.165175-35.218979-38.219719 0-12.906614 5.733172-24.334323 14.499281-31.473422l-10.818117-13.2414602c-12.936664 10.1462772-21.181185 26.3841842-21.181185 44.7148822 0 30.256383 22.988497 54.981359 52.719 54.981359 29.912951 0 52.712561-24.727123 52.712561-54.981359 0-30.681381-22.801757-55.6274427-52.712561-55.6274427zm-29.176718-19.3695801c0 4.3208072-1.809458 8.2445209-4.722193 11.0027113l7.508288 9.223303c5.548578-4.9647428 9.070904-12.1961386 9.070904-20.2281608 0-5.9435248-1.925366-11.4341483-5.147191-15.9073536l-9.043001 7.8173771c1.476759 2.3610968 2.333193 5.1192873 2.333193 8.092123zm-15.17112 15.2333676c-8.369016 0-15.171121-6.8364486-15.171121-15.2333676 0-8.3947727 6.802105-15.2333678 15.171121-15.2333678 2.940638 0 5.698828.8628736 8.029875 2.3289001l9.221157-7.9654823c-4.683557-3.9237137-10.695769-6.2805177-17.251032-6.2805177-14.930719 0-27.062463 12.1660883-27.062463 27.1504677 0 14.9908186 12.133892 27.1569069 27.062463 27.1569069 3.739119 0 7.323693-.7662833 10.603471-2.180795l-8.122173-9.9595359c-.828531.1244943-1.654914.2167916-2.481298.2167916zm47.350724-65.219935c6.280517 0 11.369755 5.117141 11.369755 11.4277089 0 6.3191539-5.089238 11.4341482-11.369755 11.4341482-3.279778 0-6.22471-1.4059258-8.311061-3.6747253l-6.733419 5.8533739c3.706922 4.1319194 9.070905 6.7742015 15.04448 6.7742015 11.189453 0 20.290408-9.1352984 20.290408-20.3869983 0-11.2130636-9.098809-20.3784124-20.290408-20.3784124-6.589607 0-12.41937 3.1896272-16.124145 8.0942693l8.800452 3.6167711c1.989761-1.6914039 4.533306-2.7603369 7.323693-2.7603369zm-11.371901 11.4298554c0-2.0219576.551638-3.8936634 1.472466-5.5442848l-8.306768-3.4085653c-1.315775 2.7002362-2.079912 5.7331725-2.079912 8.9528501 0 3.4922769.886485 6.7699087 2.419051 9.6246894l7.083291-6.1324125c-.347725-1.1011297-.588128-2.2687994-.588128-3.4922769zm-31.136428-3.5223273c5.82547 0 10.760162-3.7391188 12.655478-8.9807539l-5.48633-2.2366027c-1.006685 3.0329363-3.831416 5.2673925-7.169148 5.2673925-4.202753 0-7.600586-3.4321763-7.600586-7.6263429 0-4.19845951 3.395687-7.60058545 7.600586-7.60058545 4.136212 0 7.508287 3.33773239 7.570535 7.50614155l5.698829 2.3267537c.126641-.7319401.240403-1.4703194.240403-2.2323098.002146-7.47823771-6.065872-13.5805999-13.509767-13.5805999-7.478238 0-13.55055 6.10236219-13.55055 13.5805999 0 7.5018488 6.070166 13.576307 13.55055 13.576307z" fill="#652b81"/></svg>

<?xml version="1.0" encoding="UTF-8" standalone="no"?>
<svg width="512px" height="200px" viewBox="0 0 512 200" version="1.1" xmlns="http://www.w3.org/2000/svg" xmlns:xlink="http://www.w3.org/1999/xlink" preserveAspectRatio="xMidYMid">
	<g>
		<path d="M17.1007808,157.508772 L17.1007808,44.4444289 L0,44.4444289 L0,158.118365 C0,184.903935 16.888282,199.433267 41.5274011,196.548436 L41.5274011,180.218232 C28.5048786,180.827823 17.1007808,176.10563 17.1007808,157.508772 L17.1007808,157.508772 Z M92.866233,182.452688 C73.5245566,182.452688 57.6172031,165.287513 57.6172031,144.232969 C57.6172031,122.749133 73.5245566,105.154669 92.866233,105.154669 C112.386065,105.154669 128.263368,122.749133 128.263368,144.232969 C128.263368,165.287513 112.386065,182.452688 92.866233,182.452688 L92.866233,182.452688 Z M92.866233,88.6055263 C63.1378769,88.6055263 40.1150359,113.551588 40.1150359,144.232969 C40.1150359,174.489352 63.1378769,199.214328 92.866233,199.214328 C122.779184,199.214328 145.578794,174.487205 145.578794,144.232969 C145.578794,113.551588 122.779184,88.6055263 92.866233,88.6055263 L92.866233,88.6055263 Z M354.668947,91.2714193 L329.227055,91.2714193 L281.38694,138.506235 L281.38694,44.4444289 L264.071514,44.4444289 L264.071514,196.554875 L281.38694,196.554875 L281.38694,162.62806 L301.527096,142.975148 L337.349228,196.554875 L358.317915,196.554875 L314.150378,130.716762 L354.668947,91.2714193 L354.668947,91.2714193 Z M364.847421,132.981269 C369.322773,114.994004 384.586191,104.360482 399.053275,104.360482 C414.314547,104.360482 428.566986,115.796777 432.85345,132.981269 L364.847421,132.981269 L364.847421,132.981269 L364.847421,132.981269 Z M399.051129,88.6055263 C369.936659,88.6055263 346.332129,113.551588 346.332129,144.02047 C346.332129,174.884299 369.934511,199.006123 400.055669,199.006123 C424.301987,199.006123 442.203394,186.342058 449.527088,163.84939 L431.196389,163.84939 C425.49756,176.103483 414.926286,183.283364 400.055669,183.283364 C382.774586,183.283364 366.068752,170.374604 363.830002,148.523725 L451.978335,148.523725 C452.195127,111.104633 426.113592,88.6055263 399.051129,88.6055263 L399.051129,88.6055263 Z M477.630579,103.134858 L477.630579,91.2757122 L460.931185,91.2757122 L460.931185,196.550583 L478.244464,196.550583 L478.244464,135.623551 C478.244464,114.569006 493.720382,104.974367 511.832141,105.987492 L511.832141,88.8223179 C499.820597,87.3756095 485.570305,91.8853045 477.630579,103.134858 L477.630579,103.134858 Z" fill="#3E4345"></path>
		<path d="M203.202436,88.6055263 C195.447306,88.6055263 188.179421,90.3183947 181.654207,93.3856742 L192.719167,106.964127 C196.028995,105.802897 199.555615,105.154669 203.202436,105.154669 C222.722268,105.154669 238.629621,122.749133 238.629621,144.232969 C238.629621,165.287513 222.722268,182.452688 203.202436,182.452688 C183.86076,182.452688 167.983457,165.287513 167.983457,144.232969 C167.983457,131.326355 173.716629,119.898646 182.482738,112.759547 L171.664621,99.5180868 C158.727957,109.664364 150.483436,125.902271 150.483436,144.232969 C150.483436,174.489352 173.471933,199.214328 203.202436,199.214328 C233.115387,199.214328 255.914997,174.487205 255.914997,144.232969 C255.914997,113.551588 233.11324,88.6055263 203.202436,88.6055263 L203.202436,88.6055263 Z M174.025718,69.2359462 C174.025718,73.5567534 172.21626,77.4804671 169.303525,80.2386575 L176.811813,89.4619605 C182.360391,84.4972177 185.882717,77.2658219 185.882717,69.2337997 C185.882717,63.2902749 183.957351,57.7996514 180.735526,53.3264461 L171.692525,61.1438232 C173.169284,63.50492 174.025718,66.2631105 174.025718,69.2359462 L174.025718,69.2359462 Z M158.854598,84.4693138 C150.485582,84.4693138 143.683477,77.6328652 143.683477,69.2359462 C143.683477,60.8411735 150.485582,54.0025784 158.854598,54.0025784 C161.795236,54.0025784 164.553426,54.865452 166.884473,56.3314785 L176.10563,48.3659962 C171.422073,44.4422825 165.409861,42.0854785 158.854598,42.0854785 C143.923879,42.0854785 131.792135,54.2515668 131.792135,69.2359462 C131.792135,84.2267648 143.926027,96.3928531 158.854598,96.3928531 C162.593717,96.3928531 166.178291,95.6265698 169.458069,94.2120581 L161.335896,84.2525222 C160.507365,84.3770165 159.680982,84.4693138 158.854598,84.4693138 L158.854598,84.4693138 Z M206.205322,19.2493788 C212.485839,19.2493788 217.575077,24.3665198 217.575077,30.6770877 C217.575077,36.9962416 212.485839,42.1112359 206.205322,42.1112359 C202.925544,42.1112359 199.980612,40.7053101 197.894261,38.4365106 L191.160842,44.2898845 C194.867764,48.4218039 200.231747,51.064086 206.205322,51.064086 C217.394775,51.064086 226.49573,41.9287876 226.49573,30.6770877 C226.49573,19.4640241 217.396921,10.2986753 206.205322,10.2986753 C199.615715,10.2986753 193.785952,13.4883025 190.081177,18.3929446 L198.881629,22.0097157 C200.87139,20.3183118 203.414935,19.2493788 206.205322,19.2493788 L206.205322,19.2493788 Z M194.833421,30.6792342 C194.833421,28.6572766 195.385059,26.7855708 196.305887,25.1349494 L187.999119,21.7263841 C186.683344,24.4266203 185.919207,27.4595566 185.919207,30.6792342 C185.919207,34.1715111 186.805692,37.4491429 188.338258,40.3039236 L195.421549,34.1715111 C195.073824,33.0703814 194.833421,31.9027117 194.833421,30.6792342 L194.833421,30.6792342 Z M163.696993,27.1569069 C169.522463,27.1569069 174.457155,23.4177881 176.352471,18.176153 L170.866141,15.9395503 C169.859456,18.9724866 167.034725,21.2069428 163.696993,21.2069428 C159.49424,21.2069428 156.096407,17.7747665 156.096407,13.5805999 C156.096407,9.38214039 159.492094,5.98001445 163.696993,5.98001445 C167.833205,5.98001445 171.20528,9.31774684 171.267528,13.486156 L176.966357,15.8129097 C177.092998,15.0809696 177.20676,14.3425903 177.20676,13.5805999 C177.208906,6.10236219 171.140888,0 163.696993,0 C156.218755,0 150.146443,6.10236219 150.146443,13.5805999 C150.146443,21.0824487 156.216609,27.1569069 163.696993,27.1569069 L163.696993,27.1569069 Z" fill="#652B81"></path>
	</g>
</svg>
